!! 00000] TT[WS
!!!OTL: Ergenggu xiangdaoni jir jiao
!!!ARE: Asia, China, Shanxi Hequ
!! Ethnic Group: Han
!! WII, 36 (2)
!!!SCT: J0449
!!!YEM: Copyright 1995, estate of Helmut Schaffrath.
**kern
*ICvox
*Ivox
*M2/4
*k[]
*C:
{4dd
8dd
8dd
=1
8ee
4ee
8dd
=2
4cc
8a
8g
=3
2e}
=4
{4dd
8dd
8dd
=5
8ee
4ee
8dd
=6
8cc
8a
4e
=7
8dd
16cc
16a
8g
8a}
==
!!!AGN: Shange, Shanqu. Qingge
!!!ONB: ESAC (Essen Associative Code) Database: CHINA
!!!AMT: simple duple
!!!AIN: vox
!!!EED: Helmut Schaffrath
!!!EEV: 1.0
*-
